icons/jcb.svg

<?xml version="1.0" encoding="UTF-8"?>
<svg width="256px" height="198px" viewBox="0 0 256 198" version="1.1" xmlns="http://www.w3.org/2000/svg" xmlns:xlink="http://www.w3.org/1999/xlink" preserveAspectRatio="xMidYMid">
    <defs>
        <linearGradient x1="-57.5270968%" y1="50.1241953%" x2="232.39121%" y2="50.1241953%" id="linearGradient-1">
            <stop stop-color="#007940" offset="0%"></stop>
            <stop stop-color="#00873F" offset="22.85%"></stop>
            <stop stop-color="#40A737" offset="74.33%"></stop>
            <stop stop-color="#5CB531" offset="100%"></stop>
        </linearGradient>
        <linearGradient x1="0.182516704%" y1="49.95997%" x2="100.273441%" y2="49.95997%" id="linearGradient-2">
            <stop stop-color="#007940" offset="0%"></stop>
            <stop stop-color="#00873F" offset="22.85%"></stop>
            <stop stop-color="#40A737" offset="74.33%"></stop>
            <stop stop-color="#5CB531" offset="100%"></stop>
        </linearGradient>
        <linearGradient x1="-62.8015845%" y1="49.8578253%" x2="253.671294%" y2="49.8578253%" id="linearGradient-3">
            <stop stop-color="#007940" offset="0%"></stop>
            <stop stop-color="#00873F" offset="22.85%"></stop>
            <stop stop-color="#40A737" offset="74.33%"></stop>
            <stop stop-color="#5CB531" offset="100%"></stop>
        </linearGradient>
        <linearGradient x1="0.175556793%" y1="50.0058048%" x2="101.808162%" y2="50.0058048%" id="linearGradient-4">
            <stop stop-color="#1F286F" offset="0%"></stop>
            <stop stop-color="#004E94" offset="47.51%"></stop>
            <stop stop-color="#0066B1" offset="82.61%"></stop>
            <stop stop-color="#006FBC" offset="100%"></stop>
        </linearGradient>
        <linearGradient x1="-0.575855512%" y1="49.9142191%" x2="98.13299%" y2="49.9142191%" id="linearGradient-5">
            <stop stop-color="#6C2C2F" offset="0%"></stop>
            <stop stop-color="#882730" offset="17.35%"></stop>
            <stop stop-color="#BE1833" offset="57.31%"></stop>
            <stop stop-color="#DC0436" offset="85.85%"></stop>
            <stop stop-color="#E60039" offset="100%"></stop>
        </linearGradient>
    </defs>
	<g>
		<path d="M256.000001,157.418094 C256.000001,179.325184 238.16137,197.163815 216.254279,197.163815 L-3.43623867e-08,197.163815 L-3.43623867e-08,39.7457218 C-3.43623867e-08,17.8386312 17.8386309,3.69395977e-07 39.7457214,3.69395977e-07 L256.000001,3.69395977e-07 L256.000001,157.418094 Z" fill="#FFFFFF"></path>
		<path d="M185.584353,117.046455 L202.01467,117.046455 C202.484108,117.046455 203.579463,116.889977 204.048901,116.889977 C207.178485,116.26406 209.838631,113.447434 209.838631,109.535453 C209.838631,105.779952 207.178485,102.963326 204.048901,102.18093 C203.579463,102.024451 202.640588,102.024451 202.01467,102.024451 L185.584353,102.024451 L185.584353,117.046455 Z" fill="url(#linearGradient-1)"></path>
		<path d="M200.13692,13.3007339 C184.488999,13.3007339 171.657702,25.9755506 171.657702,41.7799516 L171.657702,71.354524 L211.872861,71.354524 C212.811737,71.354524 213.907092,71.354524 214.689488,71.511003 C223.765282,71.980441 230.493888,76.6748175 230.493888,84.8117365 C230.493888,91.2273845 225.955991,96.7041575 217.506113,97.799512 L217.506113,98.11247 C226.738387,98.738387 233.779952,103.902201 233.779952,111.882641 C233.779952,120.488998 225.955991,126.122251 215.628363,126.122251 L171.501223,126.122251 L171.501223,184.019561 L213.281174,184.019561 C228.929097,184.019561 241.760392,171.344744 241.760392,155.540344 L241.760392,13.3007339 L200.13692,13.3007339 L200.13692,13.3007339 Z" fill="url(#linearGradient-2)"></path>
		<path d="M207.804402,86.6894875 C207.804402,82.933986 205.144255,80.4303185 202.01467,79.960881 C201.701713,79.960881 200.919316,79.8044015 200.449879,79.8044015 L185.584353,79.8044015 L185.584353,93.574573 L200.449879,93.574573 C200.919316,93.574573 201.858192,93.574573 202.01467,93.4180935 C205.144255,92.948656 207.804402,90.4449885 207.804402,86.6894875 L207.804402,86.6894875 Z" fill="url(#linearGradient-3)"></path>
		<path d="M42.7188266,13.3007339 C27.0709047,13.3007339 14.2396088,25.9755506 14.2396088,41.7799516 L14.2396088,112.03912 C22.2200489,115.951101 30.5134475,118.454768 38.8068461,118.454768 C48.6650368,118.454768 53.9853305,112.508558 53.9853305,104.371639 L53.9853305,71.1980445 L78.3960885,71.1980445 L78.3960885,104.215159 C78.3960885,117.046455 70.415648,127.530563 43.3447434,127.530563 C26.9144255,127.530563 14.0831296,123.931541 14.0831296,123.931541 L14.0831296,183.863082 L55.863081,183.863082 C71.5110025,183.863082 84.3422985,171.188265 84.3422985,155.383864 L84.3422985,13.3007339 L42.7188266,13.3007339 L42.7188266,13.3007339 Z" fill="url(#linearGradient-4)"></path>
		<path d="M121.427874,13.3007339 C105.779951,13.3007339 92.9486555,25.9755506 92.9486555,41.7799517 L92.9486555,79.0220055 C100.146699,72.919316 112.665037,69.0073355 132.850856,69.946211 C143.647922,70.4156485 155.227384,73.3887535 155.227384,73.3887535 L155.227384,85.4376535 C149.437654,82.4645485 142.552568,79.8044015 133.633252,79.178485 C118.298289,78.0831305 109.066015,85.594133 109.066015,98.738387 C109.066015,112.03912 118.298289,119.550123 133.633252,118.298289 C142.552568,117.672372 149.437654,114.855746 155.227384,112.03912 L155.227384,124.08802 C155.227384,124.08802 143.804402,127.061126 132.850856,127.530563 C112.665037,128.469438 100.146699,124.557458 92.9486555,118.454768 L92.9486555,184.17604 L134.728607,184.17604 C150.376529,184.17604 163.207824,171.501223 163.207824,155.696822 L163.207824,13.3007339 L121.427874,13.3007339 L121.427874,13.3007339 Z" fill="url(#linearGradient-5)"></path>
	</g>
</svg>

<svg xmlns="http://www.w3.org/2000/svg" viewBox="0 0 256 197.164">
  <defs>
    <linearGradient id="a" x1="135.072" x2="190.412" y1="139.206" y2="139.206" gradientTransform="scale(1.27066 .787)" gradientUnits="userSpaceOnUse">
      <stop offset="0%" stop-color="#007940"/>
      <stop offset="22.85%" stop-color="#00873F"/>
      <stop offset="74.33%" stop-color="#40A737"/>
      <stop offset="100%" stop-color="#5CB531"/>
    </linearGradient>
    <linearGradient id="b" x1="267.535" x2="377.155" y1="63.249" y2="63.249" gradientTransform="scale(.64152 1.5588)" gradientUnits="userSpaceOnUse">
      <stop offset="0%" stop-color="#007940"/>
      <stop offset="22.85%" stop-color="#00873F"/>
      <stop offset="74.33%" stop-color="#40A737"/>
      <stop offset="100%" stop-color="#5CB531"/>
    </linearGradient>
    <linearGradient id="c" x1="135.111" x2="190.469" y1="110.096" y2="110.096" gradientTransform="scale(1.27029 .78722)" gradientUnits="userSpaceOnUse">
      <stop offset="0%" stop-color="#007940"/>
      <stop offset="22.85%" stop-color="#00873F"/>
      <stop offset="74.33%" stop-color="#40A737"/>
      <stop offset="100%" stop-color="#5CB531"/>
    </linearGradient>
    <linearGradient id="d" x1="22.135" x2="133.392" y1="63.278" y2="63.278" gradientTransform="scale(.64182 1.55808)" gradientUnits="userSpaceOnUse">
      <stop offset="0%" stop-color="#1F286F"/>
      <stop offset="47.51%" stop-color="#004E94"/>
      <stop offset="82.61%" stop-color="#0066B1"/>
      <stop offset="100%" stop-color="#006FBC"/>
    </linearGradient>
    <linearGradient id="e" x1="144.323" x2="252.479" y1="63.22" y2="63.22" gradientTransform="scale(.64123 1.55951)" gradientUnits="userSpaceOnUse">
      <stop offset="0%" stop-color="#6C2C2F"/>
      <stop offset="17.35%" stop-color="#882730"/>
      <stop offset="57.31%" stop-color="#BE1833"/>
      <stop offset="85.85%" stop-color="#DC0436"/>
      <stop offset="100%" stop-color="#E60039"/>
    </linearGradient>
  </defs>
  <path fill="#fff" d="M256 157.418c0 21.907-17.839 39.746-39.746 39.746H0V39.746C0 17.839 17.839 0 39.746 0H256z"/>
  <path fill="url(#a)" d="M185.584 117.046h16.43c.47 0 1.565-.156 2.035-.156 3.13-.626 5.79-3.443 5.79-7.355 0-3.755-2.66-6.572-5.79-7.354-.47-.157-1.408-.157-2.034-.157h-16.43z" style="fill:url(#a)"/>
  <path fill="url(#b)" d="M200.137 13.3c-15.648 0-28.48 12.676-28.48 28.48v29.575h40.216c.939 0 2.034 0 2.816.156 9.076.47 15.805 5.164 15.805 13.3 0 6.416-4.538 11.893-12.988 12.989v.312c9.232.626 16.274 5.79 16.274 13.77 0 8.607-7.824 14.24-18.152 14.24h-44.127v57.898h41.78c15.648 0 28.48-12.675 28.48-28.48V13.3z" style="fill:url(#b)"/>
  <path fill="url(#c)" d="M207.804 86.69c0-3.756-2.66-6.26-5.79-6.73-.312 0-1.095-.156-1.564-.156h-14.866v13.77h14.866c.47 0 1.408 0 1.565-.156 3.13-.47 5.79-2.973 5.79-6.729z" style="fill:url(#c)"/>
  <path fill="url(#d)" d="M42.719 13.3c-15.648 0-28.48 12.676-28.48 28.48v70.26c7.981 3.911 16.274 6.415 24.568 6.415 9.858 0 15.178-5.946 15.178-14.083V71.198h24.411v33.017c0 12.831-7.98 23.316-35.051 23.316-16.43 0-29.262-3.6-29.262-3.6v59.932h41.78c15.648 0 28.48-12.675 28.48-28.48V13.302z" style="fill:url(#d)"/>
  <path fill="url(#e)" d="M121.428 13.3c-15.648 0-28.48 12.676-28.48 28.48v37.242c7.199-6.103 19.717-10.015 39.903-9.076 10.797.47 22.376 3.443 22.376 3.443v12.049c-5.79-2.973-12.674-5.634-21.594-6.26-15.335-1.095-24.567 6.416-24.567 19.56 0 13.301 9.232 20.812 24.567 19.56 8.92-.626 15.805-3.442 21.594-6.259v12.049s-11.423 2.973-22.376 3.443c-20.186.938-32.704-2.974-39.902-9.076v65.721h41.78c15.648 0 28.479-12.675 28.479-28.48V13.302z" style="fill:url(#e)"/>
</svg>
